app/component-library/components/Icons/Icon/assets/snaps.svg

<svg width="24" height="24" viewBox="0 0 24 24" fill="none" xmlns="http://www.w3.org/2000/svg">
<path d="M19.7558 5.64487L13.3622 2.26962C12.6891 1.91013 11.8734 1.91013 11.2003 2.26962L4.80668 5.64487C4.33761 5.89452 4.05208 6.37385 4.05208 6.92308C4.05208 7.46232 4.33761 7.95163 4.80668 8.20128L11.2003 11.5765C11.5369 11.7563 11.9141 11.8462 12.2812 11.8462C12.6484 11.8462 13.0256 11.7563 13.3622 11.5765L19.7558 8.20128C20.2249 7.95163 20.5104 7.4723 20.5104 6.92308C20.5104 6.37385 20.2249 5.89452 19.7558 5.64487Z" fill="currentColor"/>
<path d="M10.3609 12.47L4.54997 9.38462C4.09031 9.1636 3.40484 9.33564 2.97583 9.59684C2.53661 9.86808 2.28125 10.3202 2.28125 10.8225V16.3578C2.28125 17.3122 2.82262 18.2347 3.69085 18.6667L9.64588 21.8462C9.85017 21.9466 10.0749 21.9968 10.2996 21.9968C10.5652 21.9968 10.8308 21.9265 11.0657 21.7859C11.5049 21.5247 11.7603 20.758 11.7603 20.2557V14.7203C11.7705 13.7559 11.2291 12.8919 10.3609 12.47Z" fill="currentColor"/>
<path d="M21.5867 9.60083C21.1474 9.33972 20.4579 9.15363 20.0084 9.38462L14.2117 12.4731C13.3435 12.9049 12.8021 13.7585 12.8021 14.7226V20.2562C12.8021 20.7583 13.0574 21.528 13.4967 21.7891C13.7316 21.9297 13.9972 22 14.2628 22C14.4875 22 14.7122 21.9498 14.9165 21.8494L20.8716 18.6667C21.7399 18.2348 22.2812 17.3237 22.2812 16.3596V10.826C22.2812 10.3239 22.0259 9.87199 21.5867 9.60083Z" fill="currentColor"/>
</svg>

<svg xmlns="http://www.w3.org/2000/svg" width="24" height="24" viewBox="0 0 24 24" fill="none"><path fill="currentColor" d="M19.756 5.645 13.362 2.27a2.302 2.302 0 0 0-2.162 0L4.807 5.645c-.47.25-.755.729-.755 1.278 0 .54.286 1.029.755 1.278l6.393 3.375a2.309 2.309 0 0 0 2.162 0l6.394-3.375c.469-.25.754-.729.754-1.278 0-.55-.285-1.028-.754-1.278ZM10.36 12.47 4.55 9.385c-.46-.221-1.145-.05-1.574.212-.44.271-.695.723-.695 1.226v5.535c0 .954.542 1.877 1.41 2.309l5.955 3.18a1.491 1.491 0 0 0 1.42-.06c.439-.262.694-1.029.694-1.531V14.72a2.46 2.46 0 0 0-1.4-2.25ZM21.587 9.6c-.44-.26-1.13-.446-1.579-.215l-5.796 3.088a2.498 2.498 0 0 0-1.41 2.25v5.533c0 .502.255 1.272.695 1.533a1.491 1.491 0 0 0 1.42.06l5.955-3.182c.868-.432 1.41-1.343 1.41-2.307v-5.534c0-.502-.256-.954-.695-1.225Z"/></svg>
